brandFactory_export/2.Regular/(1)Euro_Moneda_2Regular.svg

<?xml version="1.0" encoding="UTF-8"?>
<svg width="24px" height="24px" viewBox="0 0 24 24" version="1.1" xmlns="http://www.w3.org/2000/svg" xmlns:xlink="http://www.w3.org/1999/xlink">
    <title>2.Regular/(1)Euro_Moneda_2Regular</title>
    <g id="Symbols" stroke="none" stroke-width="1" fill="none" fill-rule="evenodd">
        <g id="2.Regular/(1)Euro_Moneda_2Regular" fill="#5CB615" fill-rule="nonzero">
            <path d="M20.8134454,20.2319328 C19.512605,20.8773109 17.8823529,21.2033613 15.9731092,21.2033613 C11.3983193,21.2033613 8.62184874,19.4117647 7.54957983,15.7714286 L14.1714286,15.7714286 C14.789916,15.7714286 15.2941176,15.2436975 15.2941176,14.5882353 C15.2941176,13.9361345 14.7932773,13.405042 14.1714286,13.405042 L7.13277311,13.405042 C7.08571429,12.8840336 7.03529412,12.3697479 7.03529412,11.794958 C7.03529412,11.5462185 7.06890756,11.3310924 7.0789916,11.0890756 L14.1714286,11.0890756 C14.789916,11.0890756 15.2941176,10.5613445 15.2941176,9.90588235 C15.2941176,9.25042017 14.7932773,8.72268908 14.1714286,8.72268908 L7.35462185,8.72268908 C8.22184874,4.48739496 11.0420168,2.37983193 15.9731092,2.37983193 C17.8621849,2.37983193 19.4722689,2.69915966 20.7663866,3.32773109 C21.3310924,3.60336134 21.9966387,3.34453782 22.2588235,2.75294118 C22.5176471,2.16134454 22.2756303,1.45882353 21.7109244,1.18319328 C20.1210084,0.406722689 18.1882353,0.0168067227 15.9731092,0.0168067227 C9.80168067,0.0168067227 6.01344538,3.08571429 5.04537815,8.72268908 L3.13613445,8.72268908 C2.51764706,8.72268908 2.01344538,9.25042017 2.01344538,9.90588235 C2.01344538,10.5613445 2.51764706,11.0890756 3.13613445,11.0890756 L4.81344538,11.0890756 C4.80672269,11.3243697 4.78991597,11.5529412 4.78991597,11.794958 C4.78991597,12.3529412 4.81680672,12.8840336 4.8605042,13.405042 L3.13613445,13.405042 C2.51764706,13.405042 2.01344538,13.9327731 2.01344538,14.5882353 C2.01344538,15.2403361 2.51764706,15.7714286 3.13613445,15.7714286 L5.22016807,15.7714286 C6.42689076,20.8302521 10.1378151,23.5663866 15.9697479,23.5663866 C18.2151261,23.5663866 20.1647059,23.1630252 21.7680672,22.3697479 C22.3294118,22.0907563 22.5714286,21.3882353 22.3058824,20.7966387 C22.0436975,20.205042 21.3781513,19.9495798 20.8134454,20.2319328" id="Path"></path>
        </g>
    </g>
</svg>

<svg width="24" height="24" viewBox="0 0 24 24" xmlns="http://www.w3.org/2000/svg"><path d="M20.813 20.232c-1.3.645-2.93.971-4.84.971-4.575 0-7.351-1.791-8.423-5.432h6.621c.619 0 1.123-.527 1.123-1.183 0-.652-.5-1.183-1.123-1.183H7.133c-.047-.521-.098-1.035-.098-1.61 0-.249.034-.464.044-.706h7.092c.619 0 1.123-.528 1.123-1.183 0-.656-.5-1.183-1.123-1.183H7.355c.867-4.236 3.687-6.343 8.618-6.343 1.89 0 3.5.32 4.793.948.565.275 1.23.017 1.493-.575.259-.592.017-1.294-.548-1.57C20.12.407 18.188.017 15.973.017c-6.171 0-9.96 3.069-10.928 8.706H3.136c-.618 0-1.123.527-1.123 1.183 0 .655.505 1.183 1.123 1.183h1.677c-.006.235-.023.464-.023.706 0 .558.027 1.089.07 1.61H3.137c-.618 0-1.123.528-1.123 1.183 0 .652.505 1.183 1.123 1.183H5.22c1.207 5.06 4.918 7.795 10.75 7.795 2.245 0 4.195-.403 5.798-1.196.561-.28.803-.982.538-1.573-.262-.592-.928-.847-1.493-.565" fill="#5CB615" fill-rule="nonzero"/></svg>
